copytrade/img/icomoon/copy.svg

<svg width="20" height="20" viewBox="0 0 20 20" fill="none" xmlns="http://www.w3.org/2000/svg">
<path fill-rule="evenodd" clip-rule="evenodd" d="M7.33325 10.8333C7.33325 8.90026 8.90026 7.33325 10.8333 7.33325H14.9999C16.9329 7.33325 18.4999 8.90026 18.4999 10.8333V14.9999C18.4999 16.9329 16.9329 18.4999 14.9999 18.4999H10.8333C8.90026 18.4999 7.33325 16.9329 7.33325 14.9999V10.8333ZM10.8333 9.33325C10.0048 9.33325 9.33325 10.0048 9.33325 10.8333V14.9999C9.33325 15.8283 10.0048 16.4999 10.8333 16.4999H14.9999C15.8283 16.4999 16.4999 15.8283 16.4999 14.9999V10.8333C16.4999 10.0048 15.8283 9.33325 14.9999 9.33325H10.8333Z" fill="#646E82"/>
<path fill-rule="evenodd" clip-rule="evenodd" d="M1.5 5C1.5 3.067 3.067 1.5 5 1.5H9.16667C11.0997 1.5 12.6667 3.067 12.6667 5V5.17361C12.6667 5.7259 12.219 6.17361 11.6667 6.17361C11.1144 6.17361 10.6667 5.7259 10.6667 5.17361V5C10.6667 4.17157 9.99509 3.5 9.16667 3.5H5C4.17157 3.5 3.5 4.17157 3.5 5V9.16667C3.5 9.99509 4.17157 10.6667 5 10.6667H5.17361C5.7259 10.6667 6.17361 11.1144 6.17361 11.6667C6.17361 12.219 5.7259 12.6667 5.17361 12.6667H5C3.067 12.6667 1.5 11.0997 1.5 9.16667V5Z" fill="#646E82"/>
</svg>

<svg width="20" height="20" fill="none" xmlns="http://www.w3.org/2000/svg"><path fill-rule="evenodd" clip-rule="evenodd" d="M7.333 10.833a3.5 3.5 0 013.5-3.5H15a3.5 3.5 0 013.5 3.5V15a3.5 3.5 0 01-3.5 3.5h-4.167a3.5 3.5 0 01-3.5-3.5v-4.167zm3.5-1.5a1.5 1.5 0 00-1.5 1.5V15a1.5 1.5 0 001.5 1.5H15a1.5 1.5 0 001.5-1.5v-4.167a1.5 1.5 0 00-1.5-1.5h-4.167z" fill="#646E82"/><path fill-rule="evenodd" clip-rule="evenodd" d="M1.5 5A3.5 3.5 0 015 1.5h4.167a3.5 3.5 0 013.5 3.5v.174a1 1 0 11-2 0V5a1.5 1.5 0 00-1.5-1.5H5A1.5 1.5 0 003.5 5v4.167a1.5 1.5 0 001.5 1.5h.174a1 1 0 110 2H5a3.5 3.5 0 01-3.5-3.5V5z" fill="#646E82"/></svg>
